X:5
T:Doyenne
C:Cliff Stapleton
R:march
M:C
K:F
^c2|:d3e cdBc|A3B cBA2|G2AG F2GF|F2 E4 D2|
d3e cdBc|A3B cBA2|G2AG F2GF|E6|]
DE|F3D EFAG|F2 E4 DE|FDEF AGFG|E6 DE|
F3D EFAG|F2 E4 FE|DEFA FGFE|D6|]

